images/instagram.svg

<?xml version="1.0" encoding="iso-8859-1"?>
<!-- Generator: Adobe Illustrator 19.0.0, SVG Export Plug-In . SVG Version: 6.00 Build 0)  -->
<svg version="1.1" id="Capa_1" xmlns="http://www.w3.org/2000/svg" xmlns:xlink="http://www.w3.org/1999/xlink" x="0px" y="0px"
	 viewBox="0 0 512 512" style="enable-background:new 0 0 512 512;" xml:space="preserve">
<g>
	<g>
		<path d="M371.643,0H140.357C62.964,0,0,62.964,0,140.358v231.285C0,449.037,62.964,512,140.357,512h231.286
			C449.037,512,512,449.037,512,371.643V140.358C512,62.964,449.037,0,371.643,0z M481.764,371.643
			c0,60.721-49.399,110.121-110.121,110.121H140.357c-60.721,0-110.121-49.399-110.121-110.121V140.358
			c0-60.722,49.4-110.122,110.121-110.122h231.286c60.722,0,110.121,49.4,110.121,110.122V371.643z"/>
	</g>
</g>
<g>
	<g>
		<path d="M256,115.57c-77.434,0-140.431,62.997-140.431,140.431S178.565,396.432,256,396.432
			c77.434,0,140.432-62.998,140.432-140.432S333.434,115.57,256,115.57z M256,366.197c-60.762,0-110.196-49.435-110.196-110.197
			c0-60.762,49.434-110.196,110.196-110.196c60.763,0,110.197,49.435,110.197,110.197C366.197,316.763,316.763,366.197,256,366.197z
			"/>
	</g>
</g>
<g>
	<g>
		<path d="M404.831,64.503c-23.526,0-42.666,19.141-42.666,42.667c0,23.526,19.14,42.666,42.666,42.666
			c23.526,0,42.666-19.141,42.666-42.667S428.357,64.503,404.831,64.503z M404.831,119.599c-6.853,0-12.43-5.576-12.43-12.43
			s5.577-12.43,12.43-12.43c6.854,0,12.43,5.577,12.43,12.43S411.685,119.599,404.831,119.599z"/>
	</g>
</g>
<g>
</g>
<g>
</g>
<g>
</g>
<g>
</g>
<g>
</g>
<g>
</g>
<g>
</g>
<g>
</g>
<g>
</g>
<g>
</g>
<g>
</g>
<g>
</g>
<g>
</g>
<g>
</g>
<g>
</g>
</svg>

<svg id="instagram" xmlns="http://www.w3.org/2000/svg" width="512" height="512" viewBox="0 0 512 512">
  <g id="Group_29" data-name="Group 29">
    <g id="Group_28" data-name="Group 28">
      <path id="Path_233" data-name="Path 233" d="M371.643,0H140.357C62.964,0,0,62.964,0,140.358V371.643C0,449.037,62.964,512,140.357,512H371.643C449.037,512,512,449.037,512,371.643V140.358C512,62.964,449.037,0,371.643,0ZM481.764,371.643A110.245,110.245,0,0,1,371.643,481.764H140.357A110.245,110.245,0,0,1,30.236,371.643V140.358A110.246,110.246,0,0,1,140.357,30.236H371.643A110.245,110.245,0,0,1,481.764,140.358Z" fill="#fff"/>
    </g>
  </g>
  <g id="Group_31" data-name="Group 31">
    <g id="Group_30" data-name="Group 30">
      <path id="Path_234" data-name="Path 234" d="M256,115.57c-77.434,0-140.431,63-140.431,140.431s63,140.431,140.431,140.431,140.432-63,140.432-140.432S333.434,115.57,256,115.57ZM256,366.2A110.2,110.2,0,1,1,366.2,256,110.322,110.322,0,0,1,256,366.2Z" fill="#fff"/>
    </g>
  </g>
  <g id="Group_33" data-name="Group 33">
    <g id="Group_32" data-name="Group 32">
      <path id="Path_235" data-name="Path 235" d="M404.831,64.5A42.667,42.667,0,1,0,447.5,107.169,42.715,42.715,0,0,0,404.831,64.5Zm0,55.1a12.43,12.43,0,1,1,12.43-12.43A12.445,12.445,0,0,1,404.831,119.6Z" fill="#fff"/>
    </g>
  </g>
</svg>
